X: 18422
T: Hunter's Purse, The
R: reel
M: 4/4
K: Adorian
|:eA~A2 BGEF|G2AF GED2|ABcd ~e3d|cdef g2fg|
eA~A2 BGEF|G2AF GED2|ABcd ~e3d|cABG A4:|
|:eaab ~a2ef|~g2af gedB|ABcd ~e3d|cdef g2fg|
eaab ~a2ef|~g2af gedB|ABcd ~e3d|cABG A4:|

